X:1
T:Only a Little Way
T:William Howard Doane
T:Only a Little Way
T:Public Domain
T:Public Domain
C:William Howard Doane
Z:Public Domain
%%score ( 1 2 ) ( 3 4 )
L:1/8
M:3/4
K:Ab
V:1 treble 
V:2 treble 
V:3 bass 
V:4 bass 
V:1
 [CE]2 | [Ec]3 [EB] [EA]2 | [FB][FA] [DF]4 | [DE]2 [DF]2 [DG]2 | [CA]4 [CE]2 | [Ec]3 [EB] [EA]2 | %6
w: 1.~’Tis|on- ly a|lit- tle way|on to my|home, And|there in its|
w: 2.~’Tis|on- ly a|lit- tle way|far- ther to|go, O’er|mount- ain and|
w: 3.~’Tis|on- ly a|lit- tle way:|there shall I|see The|friends that in|
 [FB]2 [FA]2 [DF]2 | [=DF]2 [DB]2 [Dc]2 | [EB]4 E2 | [EG]2 [EA]2 [EB]2 | [EA]4 [EA]2 | %11
w: sun- shine for|ev- er I’ll|roam; While|the day long|I jour-|
w: val- ley where|dark wa- ters|flow; My|ior is near|with bless-|
w: glo- ry are|wait- ing for|me; Their|es from home|now float|
 [EB]2 [Ec]2 [Ed]2 | [Ec]4 [Ec]2 | [Ee]3 [Ed] [Ec]2 | [FB]3 [FA] [DF]2 | [CE]2 [EA]2 [EG]2 | %16
w: ney with song:|O beau-|ti- ful E-|den- land, thou|art my home!|
w: ings to cheer;|His Word|is my guid-|ing star— why|should I fear?|
w: on the air—|They’re call-|ing me ten-|der- ly, call-|ing me there.|
 [EA]4 ||"^Refrain" [CA]2 | [EB]3 [E=A] [EB]2 | [Ec][Ec] [EB]4 | [Ed]3 [Ec] [Ed]2 | %21
w: |||||
w: |||||
w: |||||
 [Ee][Ee] [Ed]2 [EB]2 | [Ec]3 [EB] [EA]2 | [FB][FA] [DF]4 | [CE]2 [EA]2 [EG]2 | [EA]4 |] %26
w: |||||
w: |||||
w: |||||
V:2
 x2 | x6 | x6 | x6 | x6 | x6 | x6 | x6 | x4 E2 | x6 | x6 | x6 | x6 | x6 | x6 | x6 | x4 || x2 | x6 | %19
w: ||||||||all|||||||||||
w: ||||||||Sav-|||||||||||
w: ||||||||voic-|||||||||||
 x6 | x6 | x6 | x6 | x6 | x6 | x4 |] %26
w: |||||||
w: |||||||
w: |||||||
V:3
 [A,,A,]2 | [A,,A,]3 [B,,G,] [C,A,]2 | [D,A,][D,A,] [D,A,]4 | [E,G,]2 [E,A,]2 [E,B,]2 | %4
w: ~|~ ~ ~|~ ~ ~|~ ~ ~|
 [A,,A,]4 [A,,A,]2 | [A,,A,]3 [B,,G,] [C,A,]2 | [D,D]2 [D,D]2 [D,A,]2 | %7
w: ~ ~|~ ~ ~|~ ~ ~|
 [B,,A,]2 [B,,F,]2 [B,,A,]2 | [E,G,]4 [E,G,]2 | [E,B,]2 [E,C]2 [E,D]2 | [A,,C]4 [C,A,]2 | %11
w: ~ ~ ~|~ ~|~ ~ ~|~ ~|
 [E,G,]2 [E,A,]2 [E,B,]2 | [A,,A,]4 A,2 | [A,C]3 [G,B,] A,2 | [D,D]3 [D,D] [D,A,]2 | %15
w: ~ ~ ~|~ ~|~ ~ ~|~ ~ ~|
 [E,A,]2 [E,C]2 [E,D]2 | [A,,C]4 || [A,,A,]2 | [E,G,]3 [E,^F,] [E,G,]2 | [E,A,][E,A,] [E,G,]4 | %20
w: ~ ~ ’Tis|on-|ly|a lit- tle|way, on- ly|
 [E,B,]3 [E,=A,] [E,B,]2 | [E,C][E,C] [E,B,]2 [E,G,]2 | [A,,A,]3 [B,,G,] [C,A,]2 | %23
w: a lit- tle|way; ’Tis on- ly|a lit- tle|
 [D,D][D,D] [D,A,]4 | [E,A,]2 [E,C]2 [E,D]2 | [A,,C]4 |] %26
w: way on to|my home! *||
V:4
 x2 | x6 | x6 | x6 | x6 | x6 | x6 | x6 | x6 | x6 | x6 | x6 | x4 A,2 | x4 A,2 | x6 | x6 | x4 || x2 | %18
w: ||||||||||||~|~|||||
 x6 | x6 | x6 | x6 | x6 | x6 | x6 | x4 |] %26
w: ||||||||

